src/icons/social-dropbox.svg

<svg xmlns="http://www.w3.org/2000/svg" width="512" height="512" viewBox="0 0 512 512">
    <path d="M177 112.9L64 186.8l78.1 62.7L256 179l-79-66.1zM64 312.2l113 73.9 79-66.1-113.9-70.5L64 312.2zm192 7.8l79 66.1 113-73.9-78.1-62.7L256 320zm192-133.2l-113-73.9-79 66.1 113.9 70.5 78.1-62.7z"/>
    <path d="M256.2 181.15l-79.8 66-34.4-22.2v24.9l114 68 114-68v-24.9l-34.2 22.2z"/>
</svg>

<?xml version="1.0" encoding="UTF-8"?>
<svg width="512px" height="512px" viewBox="0 0 512 512" version="1.1" xmlns="http://www.w3.org/2000/svg" xmlns:xlink="http://www.w3.org/1999/xlink">
    <!-- Generator: Sketch 62 (91390) - https://sketch.com -->
    <title>social-dropbox</title>
    <desc>Created with Sketch.</desc>
    <g id="social-dropbox" stroke="none" stroke-width="1" fill="none" fill-rule="evenodd">
        <path d="M177,112.9 L64,186.8 L142.1,249.5 L256,179 L177,112.9 Z M64,312.2 L177,386.1 L256,320 L142.1,249.5 L64,312.2 Z M256,320 L335,386.1 L448,312.2 L369.9,249.5 L256,320 Z M448,186.8 L335,112.9 L256,179 L369.9,249.5 L448,186.8 Z" id="Shape" fill="#000000" fill-rule="nonzero"></path>
        <polygon id="Path" fill="#000000" fill-rule="nonzero" points="256.2 181.15 176.4 247.15 142 224.95 142 249.85 256 317.85 370 249.85 370 224.95 335.8 247.15"></polygon>
    </g>
</svg>
